X: 1
T:Alans Reinl\"ander
R:Reinl\"ander
O:England
M:4/4
C:Alan Dawson
N:1st part is trad. Norwegian. He forgot the 2nd part, so he made another. That's his story.
P:AABBB
K:GDor
GABG BAG^F | GABG d^fg2 | \
GABG BAG^F |1 G2D2B,2G,2 :|2G4G4 :|
|:GABc d2de | fed^c d2de | \
fege f2d2 | fed^c d2B2 | \
ABcA B2G2 | \
BAG^F G4 :|
